X:72
T:Quick Step. JJo.072
S:J.Jones MS,1801,N.Shrops.
A:N Shropshire
Z:Neil Brookes 2006
M:6/8
L:1/8
Q:3/8=120
K:C
G|cdc ceg|afff2a|gag gec|ded dBG|!
cdc ceg|aff f2a|gag gec|cdB c2||!
d2fe2g|fdc BAG|d2fe2g|afe dcB|!
cdc ceg|afff2a|gag gec|cdBc2|]

